X: 10
T: Cock O' The North
R: jig
M: 6/8
L: 1/8
K: Gmaj
M: 12/8
R: slide
|: GBB BAB GBd efg | Bdd dBG ABA AGA |
B2 B BAB GBd e2 f |[1 gBB ABA G3 g e2 d :|[2 gdB ABA G3 GBd ||
|: g2 d e2 d gfg e2 d | Bdd dBG ABA ABd |
g2 d e2 f gfg e2 d |[1 dBG ABA G3 GBd :|[2 dBG ABA G2 g e2 d |]


Tune 1218	Setting 24582

